src/svg/vendor-apple.svg

<svg version="1.2" baseProfile="tiny" xmlns="http://www.w3.org/2000/svg" width="24" height="24" viewBox="0 0 24 24"><path d="M11.9 6.6s-.1-1.6.9-3l2.8-1.6s.1 1.6-.9 3l-2.8 1.6zM17.3 12.2c0-1.5.8-2.8 2-3.6l-.9-.9c-.5-.3-1.1-.7-2.4-.7-1.4 0-2.4.9-3.7.9-1.3 0-2.2-.8-3.1-.9-.7 0-1.4 0-2.1.3-.5.2-1.2.7-1.6 1.2-.6.6-1.2 1.9-1.3 3.1-.1 1.2-.1 2.1.2 3.2.2.9.6 1.8 1 2.6.3.6.6 1.2 1 1.8.3.4.7.8 1.1 1.1.3.2.6.4 1 .6.2 0 .5.1.8.1.6-.1 1.6-.9 2.4-1.1.4-.1.8-.1 1.3 0 .7.1 1.4.9 2.2 1 .6.1 1.2 0 1.7-.3.4-.2.7-.5 1-.9.4-.4.7-.9 1-1.3.4-.7.9-1.5 1.1-2.3-1.6-.6-2.7-2.1-2.7-3.9z"/></svg>

<?xml version="1.0" encoding="iso-8859-1"?>
<!-- Generator: Adobe Illustrator 16.2.1, SVG Export Plug-In . SVG Version: 6.00 Build 0)  -->
<svg version="1.2" baseProfile="tiny" id="Layer_1" xmlns="http://www.w3.org/2000/svg" xmlns:xlink="http://www.w3.org/1999/xlink"
   x="0px" y="0px" width="24px" height="24px" viewBox="0 0 24 24" xml:space="preserve">
  <path d="M11.9,6.6c0,0-0.1-1.6,0.9-3S15.6,2,15.6,2h0c0,0,0.1,1.6-0.9,3S11.9,6.6,11.9,6.6L11.9,6.6z"/>
  <path d="M17.3,12.2c0-1.5,0.8-2.8,2-3.6c-0.2-0.2-0.6-0.6-0.9-0.9C17.9,7.4,17.3,7,16,7c-1.4,0-2.4,0.9-3.7,0.9
  	c-1.3,0-2.2-0.8-3.1-0.9C8.5,7,7.8,7,7.1,7.3C6.6,7.5,5.9,8,5.5,8.5c-0.6,0.6-1.2,1.9-1.3,3.1c-0.1,1.2-0.1,2.1,0.2,3.2
  	c0.2,0.9,0.6,1.8,1,2.6C5.7,18,6,18.6,6.4,19.2c0.3,0.4,0.7,0.8,1.1,1.1c0.3,0.2,0.6,0.4,1,0.6C8.7,20.9,9,21,9.3,21
  	c0.6-0.1,1.6-0.9,2.4-1.1c0.4-0.1,0.8-0.1,1.3,0c0.7,0.1,1.4,0.9,2.2,1c0.6,0.1,1.2,0,1.7-0.3c0.4-0.2,0.7-0.5,1-0.9
  	c0.4-0.4,0.7-0.9,1-1.3c0.4-0.7,0.9-1.5,1.1-2.3C18.4,15.5,17.3,14,17.3,12.2z"/>
</svg>
